plasma/desktoptheme/Materia-Color/icons/kopete.svg

<svg xmlns="http://www.w3.org/2000/svg" width="32" height="32" version="1.1">
 <defs id="materia">
  <style id="current-color-scheme" type="text/css">
   .ColorScheme-Background {color:#181818; } .ColorScheme-ButtonBackground { color:#343434; } .ColorScheme-Highlight { color:#4285f4; } .ColorScheme-Text { color:#dfdfdf; } .ColorScheme-ViewBackground { color:#242424; } .ColorScheme-NegativeText { color:#f44336; } .ColorScheme-PositiveText { color:#4caf50; } .ColorScheme-NeutralText { color:#ff9800; }
  </style>
 </defs>
 <g id="22-22-kopete" transform="translate(0,-22)">
  <rect style="opacity:0.001" width="22" height="22" x="0" y="0"/>
  <path style="fill:currentColor" class="ColorScheme-Text" d="m 10.5,3.0000002 a 7.5,6.5 0 0 0 -7.5,6.5 A 7.5,6.5 0 0 0 10.5,16 7.5,6.5 0 0 0 14,15.244141 V 19 l 3.511719,-7.175781 h -0.01758 A 7.5,6.5 0 0 0 18,9.5000002 a 7.5,6.5 0 0 0 -7.5,-6.5 z m 1.171875,3 C 13.509832,6 14.999999,7.5670038 15,9.5000002 15,11.432997 13.509833,13 11.671875,13 11.44609,12.999887 11.22111,12.9758 11,12.92774 c 1.551421,-0.329671 2.998582,-1.76312 3,-3.4277348 -1.55e-4,-1.6604215 -1.440075,-3.0924071 -2.986328,-3.4277344 0.216855,-0.047155 0.436763,-0.071234 0.658203,-0.072266 z m -4.140625,1 a 0.5,0.5 0 0 1 0.5,0.5 0.5,0.5 0 0 1 -0.5,0.5 0.5,0.5 0 0 1 -0.5,-0.5 0.5,0.5 0 0 1 0.5,-0.5 z m 2.0683589,2 h 1.8007821 c 0.3324,0 0.599609,0.223 0.599609,0.5 C 12,9.7770002 11.732791,10 11.400391,10 H 9.5996089 C 9.267209,10 9,9.7770002 9,9.5000002 c 0,-0.277 0.267209,-0.5 0.5996089,-0.5 z M 7.5,11 c 0.276142,0 0.5,0.22385 0.5,0.5 0,0.0994 -0.25,1 -0.25,1 C 7.75,12.5 7.67674,12 7.5,12 7.223857,12 7,11.776143 7,11.5 7,11.223858 7.22385,11 7.5,11 Z"/>
 </g>
 <g id="22-22-kopete-offline" transform="translate(32,-22)">
  <rect style="opacity:0.001" width="22" height="22" x="0" y="0"/>
  <path style="opacity:0.35;fill:currentColor" class="ColorScheme-Text" d="m 10.5,3.0000002 a 7.5,6.5 0 0 0 -7.5,6.5 A 7.5,6.5 0 0 0 10.5,16 7.5,6.5 0 0 0 14,15.244141 V 19 l 3.511719,-7.175781 h -0.01758 A 7.5,6.5 0 0 0 18,9.5000002 a 7.5,6.5 0 0 0 -7.5,-6.5 z m 1.171875,3 C 13.509832,6 14.999999,7.5670038 15,9.5000002 15,11.432997 13.509833,13 11.671875,13 11.44609,12.999887 11.22111,12.9758 11,12.92774 c 1.551421,-0.329671 2.998582,-1.76312 3,-3.4277348 -1.55e-4,-1.6604215 -1.440075,-3.0924071 -2.986328,-3.4277344 0.216855,-0.047155 0.436763,-0.071234 0.658203,-0.072266 z m -4.140625,1 a 0.5,0.5 0 0 1 0.5,0.5 0.5,0.5 0 0 1 -0.5,0.5 0.5,0.5 0 0 1 -0.5,-0.5 0.5,0.5 0 0 1 0.5,-0.5 z m 2.0683589,2 h 1.8007821 c 0.3324,0 0.599609,0.223 0.599609,0.5 C 12,9.7770002 11.732791,10 11.400391,10 H 9.5996089 C 9.267209,10 9,9.7770002 9,9.5000002 c 0,-0.277 0.267209,-0.5 0.5996089,-0.5 z M 7.5,11 c 0.276142,0 0.5,0.22385 0.5,0.5 0,0.0994 -0.25,1 -0.25,1 C 7.75,12.5 7.67674,12 7.5,12 7.223857,12 7,11.776143 7,11.5 7,11.223858 7.22385,11 7.5,11 Z"/>
 </g>
 <g id="kopete">
  <rect style="opacity:0.001" width="32" height="32" x="0" y="0"/>
  <path style="fill:currentColor" class="ColorScheme-Text" d="M 15.5 4 C 9.1487247 3.9999995 3.9999996 8.462358 4 13.966797 C 4.0000008 19.471235 9.1487256 23.933594 15.5 23.933594 C 17.37104 23.931385 19.346535 23.53238 21 22.773438 L 21 28 L 26.251953 17.529297 L 26.224609 17.529297 C 26.732466 16.392471 26.995105 15.185846 27 13.966797 C 27 8.4623586 21.851275 4.0000005 15.5 4 z M 17.199219 8 C 20.350003 7.9999996 22.904296 10.686291 22.904297 14 C 22.904297 17.313707 20.350005 20 17.199219 20 C 16.81216 19.999805 16.427874 19.959339 16.048828 19.876953 C 18.708408 19.311804 21.188975 16.853625 21.191406 14 C 21.191141 11.153563 18.722984 8.6978935 16.072266 8.1230469 C 16.444018 8.0422089 16.819608 8.0017692 17.199219 8 z M 11 10 A 0.99999962 0.99999962 0 0 1 12 11 A 0.99999962 0.99999962 0 0 1 11 12 A 0.99999962 0.99999962 0 0 1 10 11 A 0.99999962 0.99999962 0 0 1 11 10 z M 14 13 L 17 13 C 17.554 13 18 13.445999 18 14 C 18 14.553999 17.554 15 17 15 L 14 15 C 13.446 15 13 14.553999 13 14 C 13 13.445999 13.446 13 14 13 z M 11 15.966797 C 11.552284 15.966797 12 16.414499 12 16.966797 C 12 17.165597 11.5 18.966797 11.5 18.966797 C 11.5 18.966797 11.353482 17.966797 11 17.966797 C 10.447716 17.966797 10 17.519084 10 16.966797 C 10 16.414513 10.447701 15.966797 11 15.966797 z"/>
 </g>
 <g id="kopete-offline" transform="translate(32)">
  <rect style="opacity:0.001" width="32" height="32" x="0" y="0"/>
  <path style="opacity:0.35;fill:currentColor" class="ColorScheme-Text" d="m 15.5,4 c -6.3512753,-5e-7 -11.5000004,4.462358 -11.5,9.966797 8e-7,5.504438 5.1487256,9.966797 11.5,9.966797 1.87104,-0.0022 3.846535,-0.401214 5.5,-1.160156 V 28 l 5.251953,-10.470703 h -0.02734 C 26.732466,16.392471 26.995105,15.185846 27,13.966797 27,8.4623586 21.851275,4.0000005 15.5,4 Z m 1.699219,4 c 3.150784,-4e-7 5.705077,2.686291 5.705078,6 0,3.313707 -2.554292,6 -5.705078,6 -0.387059,-1.95e-4 -0.771345,-0.04066 -1.150391,-0.123047 C 18.708408,19.311804 21.188975,16.853625 21.191406,14 21.191141,11.153563 18.722984,8.6978935 16.072266,8.1230469 16.444018,8.0422089 16.819608,8.0017692 17.199219,8 Z M 11,10 a 0.99999962,0.99999962 0 0 1 1,1 0.99999962,0.99999962 0 0 1 -1,1 0.99999962,0.99999962 0 0 1 -1,-1 0.99999962,0.99999962 0 0 1 1,-1 z m 3,3 h 3 c 0.554,0 1,0.445999 1,1 0,0.553999 -0.446,1 -1,1 h -3 c -0.554,0 -1,-0.446001 -1,-1 0,-0.554001 0.446,-1 1,-1 z m -3,2.966797 c 0.552284,0 1,0.447702 1,1 0,0.1988 -0.5,2 -0.5,2 0,0 -0.146518,-1 -0.5,-1 -0.552284,0 -1,-0.447713 -1,-1 0,-0.552284 0.447701,-1 1,-1 z"/>
 </g>
</svg>

<?xml version="1.0" encoding="UTF-8"?>
<svg width="32" height="32" version="1.1" xmlns="http://www.w3.org/2000/svg">
 <defs id="materia">
  <style id="current-color-scheme" type="text/css">.ColorScheme-Background {color:#181818; } .ColorScheme-ButtonBackground { color:#343434; } .ColorScheme-Highlight { color:#4285f4; } .ColorScheme-Text { color:#dfdfdf; } .ColorScheme-ViewBackground { color:#242424; } .ColorScheme-NegativeText { color:#f44336; } .ColorScheme-PositiveText { color:#4caf50; } .ColorScheme-NeutralText { color:#ff9800; }</style>
 </defs>
 <g id="22-22-kopete" transform="translate(0,-22)">
  <rect width="22" height="22" opacity=".001"/>
  <path class="ColorScheme-Text" d="m10.5 3a7.5 6.5 0 0 0-7.5 6.5 7.5 6.5 0 0 0 7.5 6.5 7.5 6.5 0 0 0 3.5-0.75586v3.7559l3.5117-7.1758h-0.01758a7.5 6.5 0 0 0 0.50586-2.3242 7.5 6.5 0 0 0-7.5-6.5zm1.1719 3c1.838-2e-7 3.3281 1.567 3.3281 3.5 0 1.933-1.4902 3.5-3.3281 3.5-0.22578-1.13e-4 -0.45076-0.0242-0.67188-0.07226 1.5514-0.32967 2.9986-1.7631 3-3.4277-1.55e-4 -1.6604-1.4401-3.0924-2.9863-3.4277 0.21686-0.047155 0.43676-0.071234 0.6582-0.072266zm-4.1406 1a0.5 0.5 0 0 1 0.5 0.5 0.5 0.5 0 0 1-0.5 0.5 0.5 0.5 0 0 1-0.5-0.5 0.5 0.5 0 0 1 0.5-0.5zm2.0684 2h1.8008c0.3324 0 0.59961 0.223 0.59961 0.5s-0.26721 0.5-0.59961 0.5h-1.8008c-0.3324 0-0.59961-0.223-0.59961-0.5s0.26721-0.5 0.59961-0.5zm-2.0996 2c0.27614 0 0.5 0.22385 0.5 0.5 0 0.0994-0.25 1-0.25 1s-0.07326-0.5-0.25-0.5c-0.27614 0-0.5-0.22386-0.5-0.5 0-0.27614 0.22385-0.5 0.5-0.5z" fill="currentColor"/>
 </g>
 <g id="22-22-kopete-offline" transform="translate(32,-22)">
  <rect width="22" height="22" opacity=".001"/>
  <path class="ColorScheme-Text" d="m10.5 3a7.5 6.5 0 0 0-7.5 6.5 7.5 6.5 0 0 0 7.5 6.5 7.5 6.5 0 0 0 3.5-0.75586v3.7559l3.5117-7.1758h-0.01758a7.5 6.5 0 0 0 0.50586-2.3242 7.5 6.5 0 0 0-7.5-6.5zm1.1719 3c1.838-2e-7 3.3281 1.567 3.3281 3.5 0 1.933-1.4902 3.5-3.3281 3.5-0.22578-1.13e-4 -0.45076-0.0242-0.67188-0.07226 1.5514-0.32967 2.9986-1.7631 3-3.4277-1.55e-4 -1.6604-1.4401-3.0924-2.9863-3.4277 0.21686-0.047155 0.43676-0.071234 0.6582-0.072266zm-4.1406 1a0.5 0.5 0 0 1 0.5 0.5 0.5 0.5 0 0 1-0.5 0.5 0.5 0.5 0 0 1-0.5-0.5 0.5 0.5 0 0 1 0.5-0.5zm2.0684 2h1.8008c0.3324 0 0.59961 0.223 0.59961 0.5s-0.26721 0.5-0.59961 0.5h-1.8008c-0.3324 0-0.59961-0.223-0.59961-0.5s0.26721-0.5 0.59961-0.5zm-2.0996 2c0.27614 0 0.5 0.22385 0.5 0.5 0 0.0994-0.25 1-0.25 1s-0.07326-0.5-0.25-0.5c-0.27614 0-0.5-0.22386-0.5-0.5 0-0.27614 0.22385-0.5 0.5-0.5z" fill="currentColor" opacity=".35"/>
 </g>
 <g id="kopete">
  <rect width="32" height="32" opacity=".001"/>
  <path class="ColorScheme-Text" d="m15.5 4c-6.3513-5e-7 -11.5 4.4624-11.5 9.9668 8e-7 5.5044 5.1487 9.9668 11.5 9.9668 1.871-0.002209 3.8465-0.40121 5.5-1.1602v5.2266l5.252-10.471h-0.027344c0.50786-1.1368 0.7705-2.3435 0.77539-3.5625 0-5.5044-5.1487-9.9668-11.5-9.9668zm1.6992 4c3.1508-4e-7 5.7051 2.6863 5.7051 6 0 3.3137-2.5543 6-5.7051 6-0.38706-1.95e-4 -0.77134-0.040661-1.1504-0.12305 2.6596-0.56515 5.1401-3.0233 5.1426-5.877-2.65e-4 -2.8464-2.4684-5.3021-5.1191-5.877 0.37175-0.080838 0.74734-0.12128 1.127-0.12305zm-6.1992 2a1 1 0 0 1 1 1 1 1 0 0 1-1 1 1 1 0 0 1-1-1 1 1 0 0 1 1-1zm3 3h3c0.554 0 1 0.446 1 1 0 0.554-0.446 1-1 1h-3c-0.554 0-1-0.446-1-1 0-0.554 0.446-1 1-1zm-3 2.9668c0.55228 0 1 0.4477 1 1 0 0.1988-0.5 2-0.5 2s-0.14652-1-0.5-1c-0.55228 0-1-0.44771-1-1 0-0.55228 0.4477-1 1-1z" fill="currentColor"/>
 </g>
 <g id="kopete-offline" transform="translate(32)">
  <rect width="32" height="32" opacity=".001"/>
  <path class="ColorScheme-Text" d="m15.5 4c-6.3513-5e-7 -11.5 4.4624-11.5 9.9668 8e-7 5.5044 5.1487 9.9668 11.5 9.9668 1.871-0.0022 3.8465-0.40121 5.5-1.1602v5.2266l5.252-10.471h-0.02734c0.50785-1.1368 0.77049-2.3435 0.77539-3.5625 0-5.5044-5.1487-9.9668-11.5-9.9668zm1.6992 4c3.1508-4e-7 5.7051 2.6863 5.7051 6 0 3.3137-2.5543 6-5.7051 6-0.38706-1.95e-4 -0.77134-0.04066-1.1504-0.12305 2.6596-0.56515 5.1401-3.0233 5.1426-5.877-2.65e-4 -2.8464-2.4684-5.3021-5.1191-5.877 0.37175-0.080838 0.74734-0.12128 1.127-0.12305zm-6.1992 2a1 1 0 0 1 1 1 1 1 0 0 1-1 1 1 1 0 0 1-1-1 1 1 0 0 1 1-1zm3 3h3c0.554 0 1 0.446 1 1 0 0.554-0.446 1-1 1h-3c-0.554 0-1-0.446-1-1 0-0.554 0.446-1 1-1zm-3 2.9668c0.55228 0 1 0.4477 1 1 0 0.1988-0.5 2-0.5 2s-0.14652-1-0.5-1c-0.55228 0-1-0.44771-1-1 0-0.55228 0.4477-1 1-1z" fill="currentColor" opacity=".35"/>
 </g>
</svg>
